static/assets/images/products/kubeshield/kubeshield-community-logo.svg

<svg width="180" height="46" viewBox="0 0 180 46" fill="none" xmlns="http://www.w3.org/2000/svg">
<g clip-path="url(#clip0)">
<path d="M42.1615 25.2992L35.7174 15.9832V25.3028H31.1147V5.16333H35.7174V13.915L41.8739 5.16333H47.1088L40.3218 14.9723L47.4017 25.2992H42.1615Z" fill="#2516C7"/>
<path d="M62.0029 10.916V25.299H57.6896V23.947C56.9127 25.0186 55.4731 25.7009 53.5817 25.7009C50.6758 25.7009 48.2021 23.6309 48.2021 19.748V10.916H52.5101V19.114C52.5101 20.9 53.6317 21.7323 55.0106 21.7323C56.5948 21.7323 57.6896 20.8125 57.6896 18.7693V10.9106L62.0029 10.916Z" fill="#2516C7"/>
<path d="M80.6364 18.1068C80.6364 22.3933 77.5305 25.7011 73.7619 25.7011C71.8348 25.7011 70.4256 25.042 69.4754 23.9472V25.2992H65.1621V5.16333H69.4754V12.2682C70.4256 11.1752 71.8348 10.5125 73.7619 10.5125C77.5305 10.5125 80.6364 13.8221 80.6364 18.1068ZM76.3231 18.1068C76.3231 15.9511 74.8836 14.599 72.8993 14.599C70.915 14.599 69.4754 15.9511 69.4754 18.1068C69.4754 20.2626 70.915 21.6182 72.8993 21.6182C74.8836 21.6182 76.3231 20.2697 76.3231 18.1068Z" fill="#2516C7"/>
<path d="M90.3831 21.8485C91.5619 21.8485 92.5692 21.3877 93.1443 20.7554L96.5968 22.7397C95.1876 24.6955 93.0586 25.701 90.326 25.701C85.4072 25.701 82.3584 22.395 82.3584 18.1067C82.3584 13.8184 85.4643 10.5125 90.0098 10.5125C94.2088 10.5125 97.3166 13.7648 97.3166 18.1067C97.3166 18.6876 97.2568 19.267 97.1379 19.8356H86.9307C87.4772 21.3288 88.8007 21.8485 90.3831 21.8485ZM93.03 16.6136C92.5692 14.9436 91.2744 14.34 89.9813 14.34C88.3417 14.34 87.2486 15.1455 86.845 16.6136H93.03Z" fill="#2516C7"/>
<path d="M98.8027 20.725L102.77 18.4246C103.484 20.0927 104.734 21.2162 106.997 21.2162C109.183 21.2162 109.73 20.3517 109.73 19.5748C109.73 18.3371 108.58 17.8495 105.559 17.0154C102.568 16.1813 99.6333 14.7417 99.6333 10.8875C99.6333 7.00458 102.912 4.75952 106.393 4.75952C109.701 4.75952 112.287 6.34196 113.757 9.30501L109.878 11.5787C109.187 10.1391 108.238 9.25679 106.397 9.25679C104.968 9.25679 104.239 9.97121 104.239 10.7803C104.239 11.7001 104.729 12.3324 107.865 13.2808C110.914 14.2006 114.336 15.2651 114.336 19.5319C114.336 23.4148 111.23 25.7152 106.858 25.7152C102.628 25.7009 99.9244 23.6881 98.8027 20.725Z" fill="#2516C7"/>
<path d="M130.296 16.469V25.2992H125.988V17.1013C125.988 15.3152 124.866 14.4829 123.487 14.4829C121.905 14.4829 120.808 15.4045 120.808 17.4478V25.3064H116.488V5.16333H120.808V12.2682C121.585 11.1966 123.023 10.5125 124.916 10.5125C127.822 10.5125 130.296 12.5897 130.296 16.469Z" fill="#2516C7"/>
<path d="M132.821 7.06169C132.821 6.54948 132.973 6.04878 133.258 5.6229C133.542 5.19701 133.947 4.86507 134.42 4.66906C134.893 4.47305 135.414 4.42176 135.916 4.52169C136.419 4.62161 136.88 4.86827 137.242 5.23045C137.604 5.59264 137.851 6.05409 137.951 6.55646C138.051 7.05882 138 7.57954 137.804 8.05276C137.608 8.52597 137.276 8.93044 136.85 9.21501C136.424 9.49958 135.923 9.65146 135.411 9.65146C134.726 9.64494 134.071 9.37 133.587 8.88573C133.103 8.40146 132.828 7.74652 132.821 7.06169Z" fill="#E86830"/>
<path d="M137.569 10.916H133.253V25.2991H137.569V10.916Z" fill="#2516C7"/>
<path d="M148.035 21.8485C149.216 21.8485 150.221 21.3877 150.798 20.7554L154.249 22.7397C152.839 24.6955 150.71 25.701 147.98 25.701C143.059 25.701 140.01 22.395 140.01 18.1067C140.01 13.8184 143.116 10.5125 147.662 10.5125C151.862 10.5125 154.968 13.7648 154.968 18.1067C154.969 18.6877 154.91 19.2671 154.79 19.8356H144.584C145.131 21.3288 146.454 21.8485 148.035 21.8485ZM150.682 16.6136C150.221 14.9436 148.928 14.34 147.633 14.34C145.994 14.34 144.9 15.1455 144.499 16.6136H150.682Z" fill="#2516C7"/>
<path d="M157.408 4.30054H161.722V25.2991H157.408V4.30054Z" fill="#2516C7"/>
<path d="M179.641 5.16333V25.2992H175.326V23.9472C174.375 25.042 172.966 25.7011 171.039 25.7011C167.27 25.7011 164.165 22.3951 164.165 18.1068C164.165 13.8185 167.27 10.5125 171.039 10.5125C172.966 10.5125 174.375 11.1752 175.326 12.2682V5.16333H179.641ZM175.326 18.1068C175.326 15.9511 173.897 14.599 171.903 14.599C169.91 14.599 168.48 15.9511 168.48 18.1068C168.48 20.2626 169.908 21.6182 171.903 21.6182C173.899 21.6182 175.326 20.2697 175.326 18.1068Z" fill="#2516C7"/>
<path d="M12.5828 30C12.1108 29.8087 11.664 29.5603 11.2522 29.2606C8.35882 27.3888 6.11733 24.8919 4.34021 21.9664C2.1147 18.2909 0.707491 14.1789 0.214438 9.91053C-0.011986 8.05833 -0.0592389 6.18861 0.0733391 4.32734C0.0911996 4.0898 0.166216 4.03086 0.396616 4.038C1.65935 4.07194 2.9078 4.0005 4.11159 3.56292C5.06354 3.18628 5.95904 2.68023 6.77281 2.05906C7.7462 1.36429 8.73746 0.705238 9.90018 0.360531C10.7683 0.0985147 11.6728 -0.0220971 12.5792 0.00332135C12.5792 0.612364 12.5792 1.21962 12.5792 1.82866C11.7692 1.83738 10.965 1.9668 10.1931 2.21266C9.19647 2.56987 8.35882 3.19856 7.51402 3.80582C5.87621 4.98104 4.08302 5.7276 2.05764 5.8562C1.81474 5.87049 1.85403 6.01337 1.85224 6.15626C1.83749 7.97912 2.0026 9.79898 2.34519 11.5894C3.15963 15.7902 4.74564 19.6588 7.34613 23.0826C8.76881 25.0094 10.5469 26.6463 12.5846 27.905C12.5775 28.6039 12.5769 29.3022 12.5828 30Z" fill="#2516C7"/>
<path d="M12.583 29.9999C12.583 29.3009 12.583 28.602 12.583 27.903C12.6383 27.8745 12.6973 27.8477 12.7509 27.8137C14.6327 26.6119 16.2896 25.0899 17.6464 23.3165C20.0969 20.1695 21.6722 16.6116 22.5795 12.7449C23.0776 10.5853 23.3275 8.37594 23.3243 6.1597C23.3243 5.94537 23.2725 5.86678 23.0457 5.8525C22.6742 5.82462 22.3045 5.77632 21.9383 5.70783C20.238 5.41849 18.7538 4.6362 17.3946 3.61815C15.9658 2.54652 14.4226 1.79281 12.5723 1.8321C12.5723 1.22306 12.5723 0.615804 12.5723 0.0067616C14.2348 -0.0521016 15.8749 0.404549 17.2678 1.31415C17.8572 1.69815 18.4376 2.09644 19.011 2.50366C20.5051 3.55313 22.2954 4.09814 24.1208 4.0593H24.4084C25.0657 4.0593 25.0746 4.0593 25.105 4.70228C25.4193 11.3964 23.7815 17.5618 20.0504 23.1397C18.3784 25.691 16.1717 27.8483 13.5832 29.4623C13.2752 29.6852 12.9388 29.866 12.583 29.9999Z" fill="#2516C7"/>
<path d="M10.9808 24.3615C9.63649 23.1137 8.47698 21.6805 7.53734 20.1053C5.53105 16.8115 4.2777 13.1149 3.86701 9.28009C3.80807 8.76214 3.7795 8.24061 3.73663 7.72087C3.72592 7.58513 3.72592 7.48869 3.91524 7.45118C4.9038 7.23792 5.86111 6.89941 6.76398 6.44385C8.23232 8.1987 9.44625 10.1516 10.37 12.2449C11.906 15.7731 12.1994 19.718 11.2023 23.4345C11.1148 23.7399 10.9791 24.0364 10.9808 24.3615Z" fill="#2516C7"/>
<path d="M17.7018 6.05615C18.8057 6.70437 20.0044 7.17564 21.2542 7.45284C21.4918 7.50106 21.4328 7.66002 21.4203 7.79397C21.3445 9.33786 21.1263 10.8714 20.7684 12.3752C19.8557 16.2402 18.2322 19.7605 15.6621 22.8146C15.2135 23.3698 14.7175 23.8849 14.1797 24.3542C14.1799 24.2466 14.2136 24.1417 14.2761 24.0542C15.0715 22.7084 15.7297 21.2861 16.2408 19.8087C16.8479 18.078 17.277 16.2898 17.5214 14.472C17.7134 13.1707 17.8173 11.858 17.8322 10.5427C17.8304 9.04957 17.8572 7.54929 17.7018 6.05615Z" fill="#2516C7"/>
<path d="M10.9805 24.3615C10.9805 24.0364 11.1145 23.7399 11.1966 23.4345C12.1937 19.718 11.9003 15.7731 10.3643 12.2449C9.44057 10.1516 8.22664 8.19869 6.7583 6.44384C7.49203 6.03478 8.20058 5.58209 8.88013 5.08823C9.05873 4.95428 9.14089 4.96499 9.26413 5.15967C10.0116 6.31253 10.6542 7.53014 11.1841 8.79785C12.7166 12.495 13.2041 16.3439 12.8523 20.3161C12.713 21.8661 12.4544 23.4031 12.0789 24.9134C12.0662 25.0247 12.0243 25.1307 11.9575 25.2206C11.6082 24.9622 11.2814 24.6748 10.9805 24.3615Z" fill="#E86830"/>
<path d="M17.7014 6.05622C17.8568 7.54935 17.83 9.04963 17.8317 10.5481C17.8169 11.8634 17.713 13.1762 17.521 14.4774C17.2766 16.2952 16.8475 18.0834 16.2404 19.8141C15.7293 21.2915 15.0711 22.7138 14.2757 24.0596C14.2132 24.1472 14.1795 24.252 14.1793 24.3596C14.1633 24.3594 14.1474 24.3624 14.1325 24.3684C14.1177 24.3744 14.1042 24.3833 14.0929 24.3947C14.0815 24.406 14.0726 24.4195 14.0666 24.4343C14.0606 24.4492 14.0576 24.4651 14.0578 24.4811C13.7512 24.8007 13.4111 25.0863 13.0434 25.333C13.0308 25.3181 13.0164 25.3049 13.0005 25.2937C13.9043 23.4938 14.6092 21.6008 15.1027 19.648C15.7342 17.0671 15.975 14.4061 15.8171 11.7537C15.6589 9.14613 15.1611 6.57035 14.3365 4.09156C14.3275 4.0612 14.324 4.02905 14.3043 3.92725C15.5831 4.44877 16.5726 5.36859 17.7014 6.05622Z" fill="#E86830"/>
<path d="M14.0508 24.4794C14.0506 24.4634 14.0535 24.4475 14.0595 24.4326C14.0656 24.4178 14.0745 24.4043 14.0858 24.393C14.0972 24.3816 14.1106 24.3727 14.1255 24.3667C14.1403 24.3607 14.1562 24.3577 14.1722 24.3579L14.0508 24.4794Z" fill="#326CE5"/>
<path d="M13.0363 25.3313L12.981 25.3652C12.981 25.3402 12.9899 25.317 12.9935 25.292C13.0094 25.3032 13.0238 25.3164 13.0363 25.3313Z" fill="#326CE5"/>
<path d="M6.77309 40.3358C6.68723 41.3016 6.3516 42.056 5.7662 42.599C5.1808 43.1378 4.40221 43.4073 3.43045 43.4073C2.75138 43.4073 2.15232 43.2373 1.63327 42.8974C1.11812 42.5534 0.720043 42.0663 0.439051 41.4363C0.158058 40.8062 0.011708 40.0746 0 39.2415V38.3959C0 37.542 0.142448 36.7896 0.427343 36.1389C0.712238 35.4881 1.12007 34.9865 1.65083 34.6342C2.1855 34.2819 2.80212 34.1057 3.5007 34.1057C4.44124 34.1057 5.19836 34.3772 5.77205 34.9202C6.34575 35.4632 6.67942 36.2301 6.77309 37.2207H5.29788C5.22763 36.5699 5.04811 36.1016 4.75931 35.8155C4.47441 35.5254 4.05488 35.3803 3.5007 35.3803C2.85676 35.3803 2.36112 35.6311 2.01378 36.1326C1.67034 36.6301 1.49472 37.3617 1.48692 38.3275V39.1295C1.48692 40.1078 1.65083 40.8539 1.97865 41.3679C2.31038 41.8819 2.79431 42.1389 3.43045 42.1389C4.01195 42.1389 4.44905 42 4.74175 41.7223C5.03445 41.4446 5.21982 40.9824 5.29788 40.3358H6.77309Z" fill="#00A651"/>
<path d="M22.5644 39.857C22.5644 39.1979 22.6873 38.6052 22.9332 38.0788C23.1791 37.5482 23.5245 37.142 23.9694 36.8601C24.4143 36.5741 24.9255 36.4311 25.5031 36.4311C26.3578 36.4311 27.0505 36.7233 27.5813 37.3078C28.1159 37.8922 28.4047 38.6674 28.4477 39.6332L28.4535 39.9876C28.4535 40.6508 28.3325 41.2435 28.0906 41.7658C27.8525 42.2881 27.5091 42.6922 27.0603 42.9782C26.6154 43.2642 26.1002 43.4073 25.5148 43.4073C24.6211 43.4073 23.905 43.0922 23.3664 42.4622C22.8317 41.828 22.5644 40.9845 22.5644 39.9316V39.857ZM23.9869 39.9876C23.9869 40.6798 24.1216 41.2228 24.3908 41.6166C24.6601 42.0062 25.0348 42.201 25.5148 42.201C25.9948 42.201 26.3675 42.0021 26.6329 41.6041C26.9022 41.2062 27.0369 40.6238 27.0369 39.857C27.0369 39.1772 26.8983 38.6383 26.6212 38.2404C26.348 37.8425 25.9753 37.6435 25.5031 37.6435C25.0387 37.6435 24.6699 37.8404 24.3967 38.2342C24.1235 38.6238 23.9869 39.2083 23.9869 39.9876Z" fill="#00A651"/>
<path d="M45.8605 36.5554L45.9015 37.258C46.3464 36.7067 46.9552 36.4311 47.728 36.4311C48.5748 36.4311 49.1544 36.7751 49.4666 37.4632C49.9271 36.7751 50.575 36.4311 51.4101 36.4311C52.1087 36.4311 52.6278 36.6363 52.9673 37.0466C53.3107 37.457 53.4864 38.0622 53.4942 38.8622V43.2829H52.0716V38.9057C52.0716 38.4788 51.9838 38.1658 51.8082 37.9668C51.6326 37.7679 51.3418 37.6684 50.936 37.6684C50.612 37.6684 50.3467 37.7617 50.1398 37.9482C49.9369 38.1306 49.7944 38.371 49.7125 38.6694L49.7183 43.2829H48.2958V38.856C48.2763 38.0642 47.8958 37.6684 47.1543 37.6684C46.5845 37.6684 46.1806 37.915 45.9425 38.4083V43.2829H44.52V36.5554H45.8605Z" fill="#00A651"/>
<path d="M71.1588 36.5554L71.1997 37.258C71.6446 36.7067 72.2535 36.4311 73.0262 36.4311C73.8731 36.4311 74.4526 36.7751 74.7648 37.4632C75.2253 36.7751 75.8732 36.4311 76.7084 36.4311C77.4069 36.4311 77.926 36.6363 78.2655 37.0466C78.609 37.457 78.7846 38.0622 78.7924 38.8622V43.2829H77.3699V38.9057C77.3699 38.4788 77.282 38.1658 77.1064 37.9668C76.9308 37.7679 76.6401 37.6684 76.2342 37.6684C75.9103 37.6684 75.6449 37.7617 75.438 37.9482C75.2351 38.1306 75.0926 38.371 75.0107 38.6694L75.0165 43.2829H73.594V38.856C73.5745 38.0642 73.194 37.6684 72.4525 37.6684C71.8827 37.6684 71.4788 37.915 71.2407 38.4083V43.2829H69.8182V36.5554H71.1588Z" fill="#00A651"/>
<path d="M98.9566 42.6238C98.539 43.1461 97.9458 43.4073 97.177 43.4073C96.4901 43.4073 95.9691 43.1938 95.614 42.7668C95.2628 42.3399 95.0871 41.7223 95.0871 40.914V36.5554H96.5097V40.8953C96.5097 41.7492 96.8433 42.1762 97.5107 42.1762C98.2015 42.1762 98.6678 41.913 98.9098 41.3865V36.5554H100.332V43.2829H98.9918L98.9566 42.6238Z" fill="#00A651"/>
<path d="M117.968 36.5554L118.009 37.3326C118.477 36.7316 119.092 36.4311 119.853 36.4311C121.172 36.4311 121.843 37.2332 121.866 38.8373V43.2829H120.444V38.9244C120.444 38.4974 120.356 38.1824 120.18 37.9793C120.009 37.772 119.726 37.6684 119.332 37.6684C118.758 37.6684 118.331 37.944 118.05 38.4953V43.2829H116.627V36.5554H117.968Z" fill="#00A651"/>
<path d="M139.701 43.2829H138.278V36.5554H139.701V43.2829ZM138.19 34.8083C138.19 34.5762 138.259 34.3834 138.395 34.2301C138.536 34.0767 138.735 34 138.992 34C139.25 34 139.449 34.0767 139.59 34.2301C139.73 34.3834 139.8 34.5762 139.8 34.8083C139.8 35.0363 139.73 35.2269 139.59 35.3803C139.449 35.5295 139.25 35.6041 138.992 35.6041C138.735 35.6041 138.536 35.5295 138.395 35.3803C138.259 35.2269 138.19 35.0363 138.19 34.8083Z" fill="#00A651"/>
<path d="M157.904 34.9202V36.5554H159.022V37.6746H157.904V41.4301C157.904 41.687 157.951 41.8736 158.044 41.9896C158.142 42.1016 158.314 42.1575 158.56 42.1575C158.723 42.1575 158.889 42.1368 159.057 42.0953V43.2642C158.733 43.3596 158.421 43.4073 158.121 43.4073C157.028 43.4073 156.481 42.7668 156.481 41.486V37.6746H155.439V36.5554H156.481V34.9202H157.904Z" fill="#00A651"/>
<path d="M177.196 41.1192L178.484 36.5554H180L177.483 44.3026C177.096 45.4342 176.441 46 175.516 46C175.309 46 175.081 45.9627 174.831 45.8881V44.7192L175.1 44.7378C175.459 44.7378 175.729 44.6674 175.908 44.5264C176.091 44.3896 176.236 44.1575 176.341 43.8301L176.546 43.2518L174.322 36.5554H175.855L177.196 41.1192Z" fill="#00A651"/>
</g>
<defs>
<clipPath id="clip0">
<rect width="180" height="46" fill="white"/>
</clipPath>
</defs>
</svg>

<svg xmlns="http://www.w3.org/2000/svg" width="180" height="46" fill="none" xmlns:v="https://vecta.io/nano"><g clip-path="url(#A)"><g fill="#2516c7"><path d="M42.162 25.299l-6.444-9.316v9.32h-4.603V5.163h4.603v8.752l6.157-8.752h5.235l-6.787 9.809 7.08 10.327h-5.24zm19.841-14.383v14.383H57.69v-1.352c-.777 1.072-2.216 1.754-4.108 1.754-2.906 0-5.38-2.07-5.38-5.953v-8.832h4.308v8.198c0 1.786 1.122 2.618 2.5 2.618 1.584 0 2.679-.92 2.679-2.963V10.91l4.313.005zm18.633 7.191c0 4.287-3.106 7.594-6.874 7.594-1.927 0-3.336-.659-4.287-1.754v1.352h-4.313V5.163h4.313v7.105c.95-1.093 2.359-1.756 4.287-1.756 3.769 0 6.874 3.31 6.874 7.594zm-4.313 0c0-2.156-1.439-3.508-3.424-3.508s-3.424 1.352-3.424 3.508 1.44 3.511 3.424 3.511 3.424-1.349 3.424-3.511zm14.06 3.742c1.179 0 2.186-.461 2.761-1.093l3.453 1.984c-1.409 1.956-3.538 2.961-6.271 2.961-4.919 0-7.968-3.306-7.968-7.594s3.106-7.594 7.651-7.594c4.199 0 7.307 3.252 7.307 7.594 0 .581-.06 1.16-.179 1.729H86.931c.546 1.493 1.87 2.013 3.452 2.013zm2.647-5.235c-.461-1.67-1.756-2.274-3.049-2.274-1.64 0-2.733.806-3.136 2.274h6.185zm5.773 4.111l3.967-2.3c.714 1.668 1.964 2.792 4.227 2.792 2.186 0 2.733-.864 2.733-1.641 0-1.238-1.15-1.725-4.171-2.559-2.991-.834-5.926-2.274-5.926-6.128 0-3.883 3.279-6.128 6.76-6.128 3.308 0 5.894 1.582 7.364 4.545l-3.879 2.274c-.691-1.44-1.64-2.322-3.481-2.322-1.429 0-2.158.714-2.158 1.524 0 .92.49 1.552 3.626 2.5 3.049.92 6.471 1.984 6.471 6.251 0 3.883-3.106 6.183-7.478 6.183-4.23-.014-6.934-2.027-8.055-4.99zm31.493-4.256v8.83h-4.308v-8.198c0-1.786-1.122-2.618-2.501-2.618-1.582 0-2.679.922-2.679 2.965v7.859h-4.32V5.163h4.32v7.105c.777-1.072 2.215-1.756 4.108-1.756 2.906 0 5.38 2.077 5.38 5.957z"/></g><path d="M132.821 7.062c0-.512.152-1.013.437-1.439s.689-.758 1.162-.954a2.59 2.59 0 0 1 1.496-.147c.503.1.964.347 1.326.709a2.59 2.59 0 0 1 .562 2.822 2.59 2.59 0 0 1-2.393 1.599c-.685-.007-1.34-.281-1.824-.766a2.62 2.62 0 0 1-.766-1.824z" fill="#e86830"/><g fill="#2516c7"><path d="M137.569 10.916h-4.316v14.383h4.316V10.916zm10.466 10.933c1.181 0 2.186-.461 2.763-1.093l3.451 1.984c-1.41 1.956-3.539 2.961-6.269 2.961-4.921 0-7.97-3.306-7.97-7.594s3.106-7.594 7.652-7.594c4.2 0 7.306 3.252 7.306 7.594a8.3 8.3 0 0 1-.178 1.729h-10.206c.547 1.493 1.87 2.013 3.451 2.013zm2.647-5.235c-.461-1.67-1.754-2.274-3.049-2.274-1.639 0-2.733.806-3.134 2.274h6.183zm6.726-12.313h4.314V25.3h-4.314V4.301zm22.233.862v20.136h-4.315v-1.352c-.951 1.095-2.36 1.754-4.287 1.754-3.769 0-6.874-3.306-6.874-7.594s3.105-7.594 6.874-7.594c1.927 0 3.336.663 4.287 1.756V5.163h4.315zm-4.315 12.943c0-2.156-1.429-3.508-3.423-3.508s-3.423 1.352-3.423 3.508 1.428 3.511 3.423 3.511 3.423-1.349 3.423-3.511zM12.583 30c-.472-.191-.919-.44-1.331-.739-2.893-1.872-5.135-4.369-6.912-7.294A29.9 29.9 0 0 1 .214 9.911a29.02 29.02 0 0 1-.141-5.583c.018-.238.093-.296.323-.289 1.263.034 2.511-.038 3.715-.475A11.14 11.14 0 0 0 6.772 2.06C7.746 1.364 8.737.705 9.9.361a8.45 8.45 0 0 1 2.679-.357v1.825a8.15 8.15 0 0 0-2.386.384c-.997.357-1.834.986-2.679 1.593-1.638 1.175-3.431 1.922-5.456 2.05-.243.014-.204.157-.205.3a27.66 27.66 0 0 0 .493 5.433c.814 4.201 2.4 8.069 5.001 11.493a18.78 18.78 0 0 0 5.238 4.822L12.583 30z"/><path d="M12.583 30v-2.097l.168-.089c1.882-1.202 3.539-2.724 4.896-4.497 2.451-3.147 4.026-6.705 4.933-10.572.498-2.16.748-4.369.745-6.585 0-.214-.052-.293-.279-.307a10.16 10.16 0 0 1-1.107-.145c-1.7-.289-3.185-1.072-4.544-2.09-1.429-1.072-2.972-1.825-4.822-1.786V.007a8.07 8.07 0 0 1 4.696 1.307 52.65 52.65 0 0 1 1.743 1.19 8.58 8.58 0 0 0 5.11 1.556h.288c.657 0 .666 0 .697.643.314 6.694-1.323 12.86-5.055 18.437-1.672 2.551-3.879 4.709-6.467 6.323a4.27 4.27 0 0 1-1 .538zm-1.602-5.638a19.29 19.29 0 0 1-3.443-4.256 26.16 26.16 0 0 1-3.67-10.825c-.059-.518-.088-1.039-.13-1.559-.011-.136-.011-.232.179-.27a11.89 11.89 0 0 0 2.849-1.007 24.4 24.4 0 0 1 3.606 5.801 17 17 0 0 1 .832 11.19c-.087.305-.223.602-.221.927zm6.721-18.306c1.104.648 2.303 1.119 3.552 1.397.238.048.179.207.166.341a25.11 25.11 0 0 1-.652 4.581c-.913 3.865-2.536 7.385-5.106 10.439a12.32 12.32 0 0 1-1.482 1.54.52.52 0 0 1 .096-.3 23.38 23.38 0 0 0 1.965-4.245 27.04 27.04 0 0 0 1.281-5.337c.192-1.301.296-2.614.311-3.929-.002-1.493.025-2.993-.13-4.487z"/></g><g fill="#e86830"><path d="M10.981 24.362c0-.325.134-.622.216-.927a17 17 0 0 0-.832-11.19 24.4 24.4 0 0 0-3.606-5.801A21.02 21.02 0 0 0 8.88 5.088c.179-.134.261-.123.384.071.747 1.153 1.39 2.37 1.92 3.638 1.532 3.697 2.02 7.546 1.668 11.518a30.29 30.29 0 0 1-.773 4.597c-.013.111-.055.217-.121.307a7.74 7.74 0 0 1-.977-.859zm6.72-18.306c.155 1.493.129 2.993.13 4.492-.015 1.315-.119 2.628-.311 3.929a26.97 26.97 0 0 1-1.281 5.337 23.32 23.32 0 0 1-1.965 4.246.52.52 0 0 0-.096.3c-.016 0-.032.003-.047.009s-.028.015-.04.026-.02.025-.026.04-.009.031-.009.047c-.307.32-.647.605-1.014.852-.013-.015-.027-.028-.043-.039a27.71 27.71 0 0 0 2.102-5.646 26.57 26.57 0 0 0 .714-7.894 30.01 30.01 0 0 0-1.481-7.662c-.009-.03-.012-.063-.032-.164 1.279.522 2.268 1.441 3.397 2.129z"/></g><g fill="#326ce5"><path d="M14.051 24.479c0-.016.003-.032.009-.047s.015-.028.026-.04.025-.02.04-.026a.12.12 0 0 1 .047-.009l-.121.121zm-1.015.852l-.055.034c0-.025.009-.048.012-.073.016.011.03.024.043.039z"/></g><g fill="#00a651"><path d="M6.773 40.336c-.086.966-.421 1.72-1.007 2.263s-1.364.808-2.336.808c-.679 0-1.278-.17-1.797-.51S.72 42.066.439 41.436.012 40.075 0 39.242v-.846c0-.854.142-1.606.427-2.257s.693-1.152 1.223-1.505 1.151-.529 1.85-.529c.941 0 1.698.272 2.271.815s.907 1.31 1.001 2.3H5.298c-.07-.651-.25-1.119-.539-1.405s-.704-.435-1.259-.435c-.644 0-1.14.251-1.487.752s-.519 1.229-.527 2.195v.802c0 .978.164 1.724.492 2.238s.816.771 1.452.771c.581 0 1.019-.139 1.311-.417s.478-.74.556-1.386h1.475zm15.791-.479c0-.659.123-1.252.369-1.778s.591-.937 1.036-1.219.956-.429 1.534-.429c.855 0 1.547.292 2.078.877s.823 1.36.866 2.325l.006.354c0 .663-.121 1.256-.363 1.778s-.581.926-1.03 1.212-.96.429-1.546.429c-.894 0-1.61-.315-2.148-.945s-.802-1.478-.802-2.531v-.075zm1.422.131c0 .692.135 1.235.404 1.629a1.29 1.29 0 0 0 1.124.584c.48 0 .853-.199 1.118-.597s.404-.98.404-1.747c0-.68-.139-1.219-.416-1.617a1.29 1.29 0 0 0-1.118-.597c-.464 0-.833.197-1.106.591s-.41.974-.41 1.753zm21.875-3.433l.041.703c.445-.551 1.054-.827 1.827-.827.847 0 1.426.344 1.739 1.032.461-.688 1.108-1.032 1.944-1.032.699 0 1.218.205 1.557.615s.519 1.016.527 1.816v4.421h-1.423v-4.377c0-.427-.088-.74-.263-.939s-.466-.298-.872-.298c-.324 0-.589.093-.796.28s-.345.423-.427.721l.006 4.613h-1.422v-4.427c-.02-.792-.4-1.188-1.142-1.188-.57 0-.974.247-1.212.74v4.875H44.52v-6.727h1.34zm25.298 0l.041.703c.445-.551 1.054-.827 1.826-.827.847 0 1.426.344 1.739 1.032.461-.688 1.108-1.032 1.944-1.032.698 0 1.218.205 1.557.615s.519 1.016.527 1.816v4.421H77.37v-4.377c0-.427-.088-.74-.264-.939s-.466-.298-.872-.298c-.324 0-.589.093-.796.28s-.345.423-.427.721l.006 4.613h-1.422v-4.427c-.019-.792-.4-1.188-1.141-1.188-.57 0-.974.247-1.212.74v4.875H69.82v-6.727h1.341zm27.798 6.069c-.418.522-1.011.783-1.78.783-.687 0-1.208-.213-1.563-.64s-.527-1.045-.527-1.853v-4.359h1.423v4.34c0 .854.334 1.281 1.001 1.281.691 0 1.157-.263 1.399-.79v-4.831h1.422v6.727h-1.34l-.035-.659zm19.011-6.069l.041.777c.468-.601 1.083-.901 1.844-.901 1.319 0 1.99.802 2.013 2.406v4.446h-1.422v-4.358c0-.427-.088-.742-.264-.945s-.454-.311-.848-.311c-.574 0-1.001.276-1.282.827v4.788h-1.423v-6.727h1.341zm21.733 6.728h-1.423v-6.727h1.423v6.727zm-1.511-8.475a.84.84 0 0 1 .205-.578c.141-.153.34-.23.597-.23s.457.077.598.23a.82.82 0 0 1 .21.578c0 .232-.07.419-.21.572s-.34.224-.598.224-.456-.075-.597-.224a.83.83 0 0 1-.205-.572zm19.714.112v1.635h1.118v1.119h-1.118v3.756c0 .257.047.444.14.559s.27.168.516.168a2.07 2.07 0 0 0 .497-.062v1.169a3.31 3.31 0 0 1-.936.143c-1.093 0-1.64-.64-1.64-1.921v-3.811h-1.042v-1.119h1.042V34.92h1.423zm19.292 6.199l1.288-4.564H180l-2.517 7.747c-.387 1.132-1.042 1.697-1.967 1.697-.207 0-.435-.037-.685-.112v-1.169l.269.019c.359 0 .629-.07.808-.211s.328-.369.433-.696l.205-.578-2.224-6.696h1.533l1.341 4.564z"/></g></g><defs><clipPath id="A"><path fill="#fff" d="M0 0h180v46H0z"/></clipPath></defs></svg>
